newspaper-variant.svg

<svg fill="currentColor" viewBox="0 0 24 24"><path d="M20 3H4c-1.11 0-2 .89-2 2v14c0 1.11.89 2 2 2h16c1.11 0 2-.89 2-2V5c0-1.11-.89-2-2-2M5 7h5v6H5zm14 10H5v-2h14zm0-4h-7v-2h7zm0-4h-7V7h7z"/></svg>

<svg  viewBox="0 0 24 24" fill="currentColor"><path  d="M20 3H4C2.89 3 2 3.89 2 5V19C2 20.11 2.89 21 4 21H20C21.11 21 22 20.11 22 19V5C22 3.89 21.11 3 20 3M5 7H10V13H5V7M19 17H5V15H19V17M19 13H12V11H19V13M19 9H12V7H19V9Z"/></svg>
